X:3779
T:Lord George Gordon Lennox
O:england
B:Alexander Walker Collection, 1866
C:Alexander Walker
M:4/4
L:1/8
K:Gm
G2 BF GABc|dfcf AFFA|G2 BF GABc|dfcA G/G/G G:|]
d|g2 dg Bgdg|Afcf AFF^f|g2 dg Bgdg|bga^f g2 ga|
bga^f ge=fd|cfcB AFFA|G2 BF GABc|dfcA G/G/G G|]


